X:44
T: Der Nachtjaeger
N: Q0133
O: Mitteleuropa, Deutschland
N: Schlusspause korrigiert. Grundton in der zweigestrichenen Oktave.
N: Vorletzte Zeile = Refrain auf  sinnfreie Silben.
R: Ballade, Jagd, Flucht, Vergewaltigung, Tod
M: 6/8
L: 1/16
K: C
G,2 | C4C2C3B,A,2 | G,4G,2G,4
G2 | E6D6 | C6z4
G,2 | C4C2C3B,A,2 | G,4G,2G,4
G2 | E6D6 | C6z6 |
G2E2E2G2 | F2D2D2
G,2 | CDEFG2C2 | E4D4 | C6

@@@ Tune index: 1542
